X: 22
 T:She'll Be Right
M:6/8
L:1/8
C:Peter Cape
K:C
E2F|&quot;C&quot;G2G G2G|cc2 G2G|&quot;F&quot;A2A F2A|
&quot;C&quot;G3 z2E|&quot;F&quot;F2E D2F|!
&quot;C&quot;E2D C2E|&quot;D&quot;DC2 B,2C|&quot;G&quot;D3E2F|
&quot;C&quot;GG2 G2G|cc2 G2G|!
&quot;F&quot;A2A F2A|c2zA3|
&quot;C&quot;G3 EG2|&quot;G&quot;F3 E2D|&quot;C&quot;C6-|C3|
T:Chorus:
E2F|&quot;C&quot;G6|E3 D2E|&quot;G7&quot;F6-|F3-F2z|
D3D2E|F3G2F|&quot;C&quot;E6-|E2ZG2G|!
&quot;C&quot;G2G G2G|c3 G2G|
&quot;F&quot;A2A F2A|c3A3|
&quot;C&quot;G3 EG2|&quot;G&quot;F3 E2D|&quot;C&quot;C6-|C3|
